X: 21411
Q: "Moderate."
M: 2/4
L: 1/32
K: D
{G}F2(ED) (F2A2) | d3(ef2)e2 | (d2B2)(A2F2) | E4 E2(AG) |\
{G}F2(ED) (F2A2) | d2d2e2f2 | d4 (ed)B2 | A4 A2 |]
de |\
(f2a2)(a2b2) | (a2f2) (afed) | (f2a2b2a2) | (f2e2) e2(fa) |\
b2(af) (af)(ed) | (edef) (a2fe) | d3(c/d/) (ed)B2 | A4 A2 |]


